X: 1
T: The Spotted Dog
R: jig
M: 6/8
L: 1/8
K: Amaj
|:"A"EAA ABc| BAF AFE|"Bm"FBB B2e|"D"~f3 "E"ecA|
  "A"EAA ABc| BAF A2e|"D"f2a "A"e2a|1 "E"ABc BAF:|2 "E"ABc B2A||
|:"A"cee ece|fec ecA|cee ecA|"D"EFA "E"B2A|
  "A"cee ece|fec e2a|"D"f2a "A"e2a|"E"ABc B2A:|

